X:11
T:Highway To Dublin. Le4.011, The
B:L.Leadley MS#4 c1850
Z:Village Music Project, 2016 Steve Mansfield
M:6/8
L:1/8
Q:3/8=110
N:G (1/8 note) in Mss
K:Amix
g | fed cAc | ecA A2g | fed cAc | dBG G2g |
fed cAc | def gfe | agf gfe | dBG "*"G2 :|
|: B | A2a acA | acA A2B | A2a acB | acA acA |
agf gfe | dBG G2 :|

